X: 10402
M: 3/4
L: 1/8
K: D
|:\
d3fe2 | e3gf2 | d2e2f2 | .g2.e2z2 |\
gfedcB | A4Bc | dgf2Te2 | d6 :|\
|:\
a2abag | f2fdfa | g2g3f | fedcBA |
d2(d/c/d/e/)f2 | B2(B/A/B/c/)d2 | efgefd | cdecBA |\
d3fe2 | e3gf2 | d2e2f2 | .g2.e2z2 |\
gfedcB | A4BTc | dgf2Te2 | Hd6 :|
|:\
(FA.d).d.d.d | (GB.e).e.e.e | (FAd3d) | {f}e2dcBA |\
(FA.d).d.d.d | (GB.e).e.e.e | FAd2Tc2 | d6 :|\
|:\
(FA.d).d.d.d | (GB.e).e.e.e | FAd3f | {f}e2dcBA |\
(FA.d).d.d.d | (GB.e).e.e.e | FAd2Tc2 | d6 :|


